assets/images/facebook.svg

<svg width="34" height="35" viewBox="0 0 34 35" fill="none" xmlns="http://www.w3.org/2000/svg">
<path d="M16.7739 34.151C7.53978 34.151 0 26.5246 0 17.1844C0 7.84418 7.53978 0.217773 16.7739 0.217773C26.008 0.217773 33.5478 7.84418 33.5478 17.1844C33.5478 26.5246 26.008 34.151 16.7739 34.151ZM16.7739 1.50312C8.21751 1.50312 1.27075 8.5297 1.27075 17.1844C1.27075 25.8391 8.21751 32.8657 16.7739 32.8657C25.3303 32.8657 32.277 25.8391 32.277 17.1844C32.277 8.5297 25.3303 1.50312 16.7739 1.50312Z" fill="white"/>
<path d="M13.8088 27.0372H17.7058V17.0972H20.4167L20.6709 13.7553H17.6211C17.6211 13.7553 17.6211 12.47 17.6211 11.8702C17.6211 11.099 17.7905 10.7562 18.553 10.7562C19.146 10.7562 20.6709 10.7562 20.6709 10.7562V7.32861C20.6709 7.32861 18.4682 7.32861 17.9599 7.32861C15.0796 7.32861 13.7241 8.61396 13.7241 11.099C13.7241 13.2412 13.7241 13.7553 13.7241 13.7553H11.6909V17.0972H13.7241V27.0372H13.8088Z" fill="white"/>
</svg>

<svg width="34" height="35" fill="none" xmlns="http://www.w3.org/2000/svg"><path d="M16.774 34.151C7.54 34.151 0 26.525 0 17.184 0 7.844 7.54.218 16.774.218c9.234 0 16.774 7.626 16.774 16.966s-7.54 16.967-16.774 16.967zm0-32.648C8.218 1.503 1.27 8.53 1.27 17.184c0 8.655 6.947 15.682 15.503 15.682 8.556 0 15.503-7.027 15.503-15.682 0-8.654-6.947-15.68-15.503-15.68z" fill="#fff"/><path d="M13.809 27.037h3.897v-9.94h2.71l.255-3.342h-3.05V11.87c0-.771.17-1.114.932-1.114h2.118V7.33H17.96c-2.88 0-4.236 1.285-4.236 3.77v2.656h-2.033v3.342h2.033v9.94h.085z" fill="#fff"/></svg>
